X:1
T:Title
%%score 1 { 2 | 3 }
L:1/8
Q:1/4=86
M:3/4
K:F
V:1 treble nm="Grand Piano, Soprano"
V:2 bass nm="Choir Pad, New Delhi, 88.86"
V:3 bass 
V:1
 C[CF] [CG] [FA]3 | [Fc][EB] [FA] [EG]3 | C[CE] [CF] [EG]3 | [GB][FA] [CG] [CF]3 | %4
w: By~James~McGranahan,~1887 * * *||||
 C[CF] [CG] [FA]3 | [FA][FB] [Fc] [Fd]3- | [Fd] [Bd]2 [Ac]3 | [FA][EB] [EG] F3- | F4 z2 |] %9
w: |||||
V:2
 A,A, B, C3 | CC C C3 | E,G, A, B,3 | E,F, B, A,3 | A,A, B, C3 | CB, A, B,3- | B, F,2 F,3 | %7
 F,G, B, A,3- | A,4 z2 |] %9
V:3
 F,F, F, F,3 | A,G, F, C,3 | C,C, C, C,3 | C,C, C, F,3 | F,F, F, F,3 | _E,D, C, B,,3- | %6
 B,, B,,2 C,3 | C,C, C, [F,,F,]3- | [F,,F,]4 z2 |] %9

